source/icons/instagram.svg

<svg width="20" height="20" viewBox="0 0 20 20" fill="none" xmlns="http://www.w3.org/2000/svg">
<path d="M9.98047 0.078125C11.6471 0.078125 13.0078 0.0976562 14.0625 0.136719C14.9609 0.175781 15.7617 0.332031 16.4648 0.605469C17.1419 0.865885 17.7279 1.24349 18.2227 1.73828C18.7174 2.23307 19.0951 2.81901 19.3555 3.49609C19.6289 4.19922 19.7852 5 19.8242 5.89844C19.8633 6.95312 19.8828 8.3138 19.8828 9.98047C19.8828 11.6471 19.8633 13.0078 19.8242 14.0625C19.7852 14.9609 19.6289 15.7617 19.3555 16.4648C19.0951 17.1419 18.7174 17.7279 18.2227 18.2227C17.7279 18.7174 17.1419 19.0951 16.4648 19.3555C15.7617 19.6289 14.9609 19.7852 14.0625 19.8242C13.0078 19.8633 11.6471 19.8828 9.98047 19.8828C8.3138 19.8828 6.95312 19.8633 5.89844 19.8242C5 19.7852 4.19922 19.6289 3.49609 19.3555C2.81901 19.0951 2.23307 18.7174 1.73828 18.2227C1.24349 17.7279 0.865885 17.1419 0.605469 16.4648C0.332031 15.7617 0.175781 14.9609 0.136719 14.0625C0.0976562 13.0078 0.078125 11.6471 0.078125 9.98047C0.078125 8.3138 0.0976562 6.95312 0.136719 5.89844C0.175781 5 0.332031 4.19922 0.605469 3.49609C0.865885 2.81901 1.24349 2.23307 1.73828 1.73828C2.23307 1.24349 2.81901 0.865885 3.49609 0.605469C4.19922 0.332031 5 0.175781 5.89844 0.136719C6.95312 0.0976562 8.3138 0.078125 9.98047 0.078125ZM9.98047 1.36719C8.2487 1.36719 6.83594 1.38672 5.74219 1.42578C5.03906 1.45182 4.38802 1.57552 3.78906 1.79687C2.85156 2.1875 2.1875 2.85156 1.79688 3.78906C1.57552 4.38802 1.45182 5.03906 1.42578 5.74219C1.38672 6.83594 1.36719 8.2487 1.36719 9.98047C1.36719 11.7122 1.38672 13.125 1.42578 14.2187C1.45182 14.9219 1.57552 15.5729 1.79688 16.1719C2.1875 17.1094 2.85156 17.7734 3.78906 18.1641C4.38802 18.3854 5.03906 18.5091 5.74219 18.5352C6.83594 18.5742 8.2487 18.5937 9.98047 18.5937C11.7122 18.5937 13.125 18.5742 14.2188 18.5352C14.9219 18.5091 15.5729 18.3854 16.1719 18.1641C17.1094 17.7734 17.7734 17.1094 18.1641 16.1719C18.3854 15.5729 18.5091 14.9219 18.5352 14.2187C18.5742 13.125 18.5938 11.7122 18.5938 9.98047C18.5938 8.2487 18.5742 6.83594 18.5352 5.74219C18.5091 5.03906 18.3854 4.38802 18.1641 3.78906C17.7734 2.85156 17.1094 2.1875 16.1719 1.79687C15.5729 1.57552 14.9219 1.45182 14.2188 1.42578C13.125 1.38672 11.7122 1.36719 9.98047 1.36719ZM9.98047 13.9453C11.0742 13.9453 12.0085 13.5579 12.7832 12.7832C13.5579 12.0085 13.9453 11.0742 13.9453 9.98047C13.9453 8.88672 13.5579 7.95247 12.7832 7.17773C12.0085 6.40299 11.0742 6.01562 9.98047 6.01562C8.88672 6.01562 7.95247 6.40299 7.17773 7.17773C6.40299 7.95247 6.01562 8.88672 6.01562 9.98047C6.01562 11.0742 6.40299 12.0085 7.17773 12.7832C7.95247 13.5579 8.88672 13.9453 9.98047 13.9453ZM9.98047 4.90234C11.3867 4.90234 12.5846 5.39713 13.5742 6.38672C14.5638 7.3763 15.0586 8.57422 15.0586 9.98047C15.0586 11.3867 14.5638 12.5846 13.5742 13.5742C12.5846 14.5638 11.3867 15.0586 9.98047 15.0586C8.57422 15.0586 7.3763 14.5638 6.38672 13.5742C5.39714 12.5846 4.90234 11.3867 4.90234 9.98047C4.90234 8.57422 5.39714 7.3763 6.38672 6.38672C7.3763 5.39713 8.57422 4.90234 9.98047 4.90234ZM16.4648 4.70703C16.4648 5.03255 16.3477 5.30924 16.1133 5.53711C15.8789 5.76497 15.5924 5.87891 15.2539 5.87891C14.9284 5.87891 14.6517 5.76497 14.4238 5.53711C14.196 5.30924 14.082 5.03255 14.082 4.70703C14.082 4.36849 14.196 4.08203 14.4238 3.84766C14.6517 3.61328 14.9284 3.49609 15.2539 3.49609C15.5794 3.49609 15.8626 3.61654 16.1035 3.85742C16.3444 4.09831 16.4648 4.38151 16.4648 4.70703Z" fill="#666666"/>
</svg>

<svg width="20" height="20" fill="none" xmlns="http://www.w3.org/2000/svg"><path d="M9.98.08c1.67 0 3.03.02 4.08.06.9.04 1.7.2 2.4.47a4.98 4.98 0 0 1 2.9 2.89c.27.7.43 1.5.46 2.4.04 1.05.06 2.41.06 4.08s-.02 3.03-.06 4.08c-.03.9-.2 1.7-.46 2.4a4.99 4.99 0 0 1-2.9 2.9c-.7.27-1.5.43-2.4.46-1.05.04-2.41.06-4.08.06s-3.03-.02-4.08-.06a7.5 7.5 0 0 1-2.4-.46 4.98 4.98 0 0 1-2.9-2.9 7.5 7.5 0 0 1-.46-2.4C.1 13.01.08 11.65.08 9.98S.1 6.95.14 5.9c.04-.9.2-1.7.47-2.4A4.98 4.98 0 0 1 3.5.6 7.5 7.5 0 0 1 5.9.15C6.95.1 8.3.08 9.98.08Zm0 1.29c-1.73 0-3.14.02-4.24.06-.7.02-1.35.15-1.95.37-.94.39-1.6 1.05-2 1.99-.21.6-.34 1.25-.36 1.95-.04 1.1-.06 2.5-.06 4.24 0 1.73.02 3.14.06 4.24.02.7.15 1.35.37 1.95.39.94 1.05 1.6 1.99 2 .6.22 1.25.34 1.95.37 1.1.03 2.5.05 4.24.05 1.73 0 3.14-.02 4.24-.05.7-.03 1.35-.15 1.95-.38.94-.39 1.6-1.05 2-1.99.22-.6.34-1.25.37-1.95.03-1.1.05-2.5.05-4.24 0-1.73-.02-3.14-.05-4.24a6.27 6.27 0 0 0-.38-1.95 3.57 3.57 0 0 0-1.99-2 6.27 6.27 0 0 0-1.95-.36c-1.1-.04-2.5-.06-4.24-.06Zm0 12.58c1.1 0 2.03-.4 2.8-1.17a3.82 3.82 0 0 0 1.17-2.8c0-1.1-.4-2.03-1.17-2.8a3.82 3.82 0 0 0-2.8-1.16c-1.1 0-2.03.38-2.8 1.16a3.82 3.82 0 0 0-1.16 2.8c0 1.1.38 2.03 1.16 2.8.77.78 1.7 1.17 2.8 1.17Zm0-9.05c1.4 0 2.6.5 3.6 1.49a4.9 4.9 0 0 1 1.48 3.59c0 1.4-.5 2.6-1.49 3.6a4.9 4.9 0 0 1-3.59 1.48c-1.4 0-2.6-.5-3.6-1.49A4.9 4.9 0 0 1 4.9 9.98c0-1.4.5-2.6 1.49-3.6A4.9 4.9 0 0 1 9.98 4.9Zm6.48-.2a1.19 1.19 0 0 1-1.21 1.17c-.32 0-.6-.1-.83-.33-.22-.23-.34-.5-.34-.83a1.19 1.19 0 0 1 1.17-1.21c.33 0 .61.12.85.36s.36.52.36.85Z" fill="#666"/></svg>
